modules/feather/icons/book-open.svg

<?xml version="1.0" encoding="UTF-8"?>
<svg width="24px" height="24px" viewBox="0 0 24 24" version="1.1" xmlns="http://www.w3.org/2000/svg" xmlns:xlink="http://www.w3.org/1999/xlink">
    <g id="book-open" fill-rule="evenodd">
        <path d="M3,4 L3,17 L9,17 C9.72857429,17 10.4116533,17.1947886 11,17.5351288 L11,7 C11,5.34314575 9.65685425,4 8,4 L3,4 Z M12,22 C11.5,22 11,21.6666667 11,21 C11,19.8954305 10.1045695,19 9,19 L2,19 C1.44771525,19 1,18.5522847 1,18 L1,3 C1,2.44771525 1.44771525,2 2,2 L8,2 C9.63559896,2 11.0877712,2.7853431 12,3.99951255 C12.9122288,2.7853431 14.364401,2 16,2 L22,2 C22.5522847,2 23,2.44771525 23,3 L23,18 C23,18.5522847 22.5522847,19 22,19 L15,19 C13.8954305,19 13,19.8954305 13,21 C13,21.6666667 12.5,22 12,22 C11.5,22 11,21.6666667 11,21 C11,19.5194353 11.8043973,18.2267476 13,17.5351288 L13,21 C13,21.6666667 12.5,22 12,22 Z M21,4 L16,4 C14.3431458,4 13,5.34314575 13,7 L13,17.5351288 C13.5883467,17.1947886 14.2714257,17 15,17 L21,17 L21,4 Z" id="Combined-Shape" fill="#000000" fill-rule="nonzero"></path>
    </g>
</svg>

<svg width="24" height="24" viewBox="0 0 24 24" xmlns="http://www.w3.org/2000/svg"><path d="M3 4v13h6c.729 0 1.412.195 2 .535V7a3 3 0 0 0-3-3H3zm9 18c-.5 0-1-.333-1-1a2 2 0 0 0-2-2H2a1 1 0 0 1-1-1V3a1 1 0 0 1 1-1h6c1.636 0 3.088.785 4 2a4.992 4.992 0 0 1 4-2h6a1 1 0 0 1 1 1v15a1 1 0 0 1-1 1h-7a2 2 0 0 0-2 2c0 .667-.5 1-1 1s-1-.333-1-1c0-1.48.804-2.773 2-3.465V21c0 .667-.5 1-1 1zm9-18h-5a3 3 0 0 0-3 3v10.535A3.982 3.982 0 0 1 15 17h6V4z" fill-rule="nonzero"/></svg>
